img/i/book-bag.svg

<svg enable-background="new 0 0 512.001 512.001" viewBox="0 0 512.001 512.001" xmlns="http://www.w3.org/2000/svg"><path d="m11.584 228.158v206.812c0 8.422 6.944 15.251 15.512 15.251h457.81c8.567 0 15.512-6.827 15.512-15.251v-206.812z" fill="#181818"/><path d="m484.905 120.682h-457.81c-8.566 0-15.512 6.944-15.512 15.512v86.172c0 27.031 21.913 48.942 48.942 48.942h390.947c27.031 0 48.942-21.913 48.942-48.942v-86.172c.002-8.566-6.942-15.512-15.509-15.512z" fill="#4c5870"/><path d="m230.765 274.784v24.845c0 13.938 11.299 25.235 25.235 25.235 13.938 0 25.235-11.298 25.235-25.235v-24.845l-25.235-11.584z" fill="#ff8c00"/><path d="m230.771 221.226h50.47v50.076h-50.47z" fill="#ffb14d"/><path d="m484.905 109.098h-148.65v-45.321c0-6.398-5.187-11.584-11.584-11.584h-137.343c-6.398 0-11.584 5.186-11.584 11.584v45.322h-148.649c-14.94-.001-27.095 12.154-27.095 27.095v86.172 210.347c0 14.94 12.155 27.094 27.095 27.094h457.81c14.94 0 27.095-12.155 27.095-27.094v-210.347-86.172c0-14.941-12.155-27.096-27.095-27.096zm-285.993-33.737h114.176v33.739h-114.176zm-175.745 60.833c0-2.166 1.762-3.928 3.928-3.928h457.81c2.165 0 3.928 1.762 3.928 3.928v86.172c0 20.599-16.759 37.359-37.359 37.359h-158.655v-38.497c0-6.398-5.187-11.584-11.584-11.584h-50.47c-6.398 0-11.584 5.186-11.584 11.584v38.497h-158.655c-20.599 0-37.359-16.759-37.359-37.359zm219.182 146.698h27.303v13.262c0 7.528-6.124 13.651-13.651 13.651-7.528 0-13.651-6.124-13.651-13.651v-13.262zm0-23.167v-26.914h27.303v26.914zm242.556 176.915h-457.81c-2.166 0-3.928-1.762-3.928-3.927v-162.78c10.298 8.105 23.268 12.959 37.359 12.959h158.654v13.262c0 20.302 16.517 36.819 36.819 36.819s36.819-16.517 36.819-36.819v-13.262h158.655c14.09 0 27.062-4.854 37.359-12.959v162.78c.001 2.166-1.761 3.927-3.927 3.927z" fill="#11113f"/></svg>

<?xml version="1.0" encoding="iso-8859-1"?>
<!-- Generator: Adobe Illustrator 19.0.0, SVG Export Plug-In . SVG Version: 6.00 Build 0)  -->
<svg version="1.1" id="Layer_1" xmlns="http://www.w3.org/2000/svg" xmlns:xlink="http://www.w3.org/1999/xlink" x="0px" y="0px"
	 viewBox="0 0 512.001 512.001" style="enable-background:new 0 0 512.001 512.001;" xml:space="preserve">
<path style="fill:#181818;" d="M11.584,228.158V434.97c0,8.422,6.944,15.251,15.512,15.251h457.81
	c8.567,0,15.512-6.827,15.512-15.251V228.158H11.584z"/>
<path style="fill:#4C5870;" d="M484.905,120.682H27.095c-8.566,0-15.512,6.944-15.512,15.512v86.172
	c0,27.031,21.913,48.942,48.942,48.942h390.947c27.031,0,48.942-21.913,48.942-48.942v-86.172
	C500.416,127.628,493.472,120.682,484.905,120.682z"/>
<path style="fill:#FF8C00;" d="M230.765,274.784v24.845c0,13.938,11.299,25.235,25.235,25.235c13.938,0,25.235-11.298,25.235-25.235
	v-24.845L256,263.2L230.765,274.784z"/>
<rect x="230.771" y="221.226" style="fill:#FFB14D;" width="50.47" height="50.076"/>
<path style="fill:#11113F;" d="M484.905,109.098H336.255V63.777c0-6.398-5.187-11.584-11.584-11.584H187.328
	c-6.398,0-11.584,5.186-11.584,11.584v45.322H27.095C12.155,109.098,0,121.253,0,136.194v86.172v210.347
	c0,14.94,12.155,27.094,27.095,27.094h457.81c14.94,0,27.095-12.155,27.095-27.094V222.366v-86.172
	C512,121.253,499.845,109.098,484.905,109.098z M198.912,75.361h114.176v33.739H198.912L198.912,75.361L198.912,75.361z
	 M23.167,136.194c0-2.166,1.762-3.928,3.928-3.928h457.81c2.165,0,3.928,1.762,3.928,3.928v86.172
	c0,20.599-16.759,37.359-37.359,37.359H292.819v-38.497c0-6.398-5.187-11.584-11.584-11.584h-50.47
	c-6.398,0-11.584,5.186-11.584,11.584v38.497H60.526c-20.599,0-37.359-16.759-37.359-37.359V136.194z M242.349,282.892h27.303
	v13.262c0,7.528-6.124,13.651-13.651,13.651c-7.528,0-13.651-6.124-13.651-13.651V282.892z M242.349,259.725v-26.914h27.303v26.914
	H242.349z M484.905,436.64H27.095c-2.166,0-3.928-1.762-3.928-3.927v-162.78c10.298,8.105,23.268,12.959,37.359,12.959H219.18
	v13.262c0,20.302,16.517,36.819,36.819,36.819s36.819-16.517,36.819-36.819v-13.262h158.655c14.09,0,27.062-4.854,37.359-12.959
	v162.78C488.833,434.879,487.071,436.64,484.905,436.64z"/>
<g>
</g>
<g>
</g>
<g>
</g>
<g>
</g>
<g>
</g>
<g>
</g>
<g>
</g>
<g>
</g>
<g>
</g>
<g>
</g>
<g>
</g>
<g>
</g>
<g>
</g>
<g>
</g>
<g>
</g>
</svg>
